icons/svg/functional-icons/street_lamp_lit.svg

<?xml version="1.0" encoding="UTF-8" standalone="no"?>
<svg
   xmlns:dc="http://purl.org/dc/elements/1.1/"
   xmlns:cc="http://creativecommons.org/ns#"
   xmlns:rdf="http://www.w3.org/1999/02/22-rdf-syntax-ns#"
   xmlns:svg="http://www.w3.org/2000/svg"
   xmlns="http://www.w3.org/2000/svg"
   xmlns:sodipodi="http://sodipodi.sourceforge.net/DTD/sodipodi-0.dtd"
   xmlns:inkscape="http://www.inkscape.org/namespaces/inkscape"
   width="580"
   height="580"
   id="svg2"
   version="1.1"
   inkscape:version="0.48.4 r9939"
   sodipodi:docname="street_lamp.svg">
  <defs
     id="defs13" />
  <sodipodi:namedview
     pagecolor="#ffffff"
     bordercolor="#666666"
     borderopacity="1"
     objecttolerance="10"
     gridtolerance="10"
     guidetolerance="10"
     inkscape:pageopacity="0"
     inkscape:pageshadow="2"
     inkscape:window-width="1324"
     inkscape:window-height="739"
     id="namedview11"
     showgrid="false"
     inkscape:zoom="0.28771931"
     inkscape:cx="-48.702579"
     inkscape:cy="422.079"
     inkscape:window-x="42"
     inkscape:window-y="1024"
     inkscape:window-maximized="1"
     inkscape:current-layer="svg2"
     inkscape:snap-bbox="true"
     inkscape:object-nodes="true"
     inkscape:object-paths="true"
     inkscape:snap-global="false" />
  <metadata
     id="metadata2975">image/svg+xmlen<rdf:RDF>
  <cc:Work
     rdf:about="">
    <dc:format>image/svg+xml</dc:format>
    <dc:type
       rdf:resource="http://purl.org/dc/dcmitype/StillImage" />
    <dc:title></dc:title>
  </cc:Work>
</rdf:RDF>
</metadata>
  <path
     style="fill:#ffd200;fill-opacity:1;stroke:#000000;stroke-width:1.32218349000000002px;stroke-linecap:butt;stroke-linejoin:miter;stroke-opacity:1"
     d="m 182.10479,105.98018 31.68197,184.40538 72.29992,28.43256 81.23585,-32.49436 23.55839,-184.40537 z"
     id="path3780"
     inkscape:connector-curvature="0" />
  <path
     style="font-size:medium;font-style:normal;font-variant:normal;font-weight:normal;font-stretch:normal;text-indent:0;text-align:start;text-decoration:none;line-height:normal;letter-spacing:normal;word-spacing:normal;text-transform:none;direction:ltr;block-progression:tb;writing-mode:lr-tb;text-anchor:start;baseline-shift:baseline;color:#000000;fill:#000000;fill-opacity:1;stroke:none;stroke-width:49.79999924;marker:none;visibility:visible;display:inline;overflow:visible;enable-background:accumulate;font-family:Sans;-inkscape-font-specification:Sans"
     d="m 250.34799,306.63414 14.74576,36.09743 0,208.35769 c 18.89318,15.20033 35.00267,11.91539 49.8125,0 l 0,-207.3377 14.74576,-37.11742 z"
     id="path3757"
     inkscape:connector-curvature="0"
     sodipodi:nodetypes="ccccccc" />
  <path
     style="fill:#000000;fill-opacity:1;stroke:#000000;stroke-width:1.32218349px;stroke-linecap:butt;stroke-linejoin:miter;stroke-opacity:1"
     d="m 168.37054,103.29717 124.65005,49.40049 117.68726,-51.09489 -43.56962,-31.900958 c 0,0 -55.2357,3.175952 -73.54322,-65.780026 -25.27467,70.079754 -88.46132,67.207633 -88.46132,67.207633 z"
     id="path3761"
     inkscape:connector-curvature="0"
     sodipodi:nodetypes="ccccccc" />
  <path
     style="fill:none;stroke:#000000;stroke-width:28.69138336;stroke-linecap:butt;stroke-linejoin:miter;stroke-miterlimit:4;stroke-opacity:1;stroke-dasharray:none"
     d="m 182.20519,101.20446 31.35011,187.40576 76.03957,28.36025 77.14944,-25.37763 29.72271,-183.58387 C 345.41546,70.802083 292.21418,89.5068 292.74915,150.97438 l 0.29226,165.42167"
     id="path3763"
     inkscape:connector-curvature="0"
     sodipodi:nodetypes="ccccccc" />
</svg>

<svg width="580" height="580" viewBox="0 0 580 580" fill="none" xmlns="http://www.w3.org/2000/svg">
<path d="M182.104 105.98L213.786 290.385L286.086 318.818L367.322 286.323L390.881 101.918L182.104 105.98Z" fill="#FFD200" stroke="black" stroke-width="1.32218"/>
<path d="M250.348 306.634L265.093 342.731V551.089C283.987 566.289 300.096 563.004 314.906 551.089V343.751L329.652 306.634H250.348Z" fill="black"/>
<path d="M168.37 103.297L293.02 152.698L410.707 101.603L367.138 69.7019C367.138 69.7019 311.902 72.8779 293.595 3.92188C268.32 74.0016 205.133 71.1295 205.133 71.1295L168.37 103.297Z" fill="black" stroke="black" stroke-width="1.32218"/>
<path d="M182.205 101.204L213.555 288.61L289.595 316.97L366.744 291.593L396.467 108.009C345.415 70.8019 292.214 89.5066 292.749 150.974L293.041 316.396" stroke="black" stroke-width="28.6914"/>
</svg>
